X: 1
T: A Mighty Fortress Is Our God
M: 4/4 % time signature
L: 1/4 % default length
%%staves (S1V1 S1V2) | (S2V1 S2V2) 
V: S1V1 clef=treble 
%%MIDI beat 127 125 110 1
V: S1V2 
%%MIDI beat 127 125 110 1
V: S2V1 clef=bass 
%%MIDI beat 127 125 110 1
V: S2V2 
%%MIDI beat 127 125 110 1
K: D % key signature
%
%%MIDI program 1 0 % Piano 1
%%MIDI program 2 0 % Piano 1
%%MIDI program 3 0 % Piano 1
%%MIDI program 4 0 % Piano 1
%
% 1
[V: S1V1] [Q:1/4=110] d | d d A/B/ c | d/c/ B !fermata!A d | c B A B | (G/F/ E) !fermata!D
w: 1.~A might- y for- * tress is * our God, a bul- wark nev- er fail- * * ing;
w: 2.~Did we in our * own strength * con- fide, our striv- ing would be lo- * * sing;
w: 3.~And though this world, * with dev- * ils filled, should threat- en to un- do * * us,
w: 4.~That word a- bove * all earth- * ly pow'rs, no thanks to them, a- bid- * * eth;
[V: S1V2] F | D F E E | D E !ferm!C D | F D D D | (B, C) !ferm!D
[V: S2V1] A, | A, A, A,/^G,/ A, | F, ^G, !invertedfermata!A, F, | A, G, F, F, | (G, A,) !invertedfermata!F,
[V: S2V2] D, | F, D, C,/B,,/ A,, | B,, E, !ferm!A,, B,, | F, G, D, B,, | (E, A,,) !ferm!D,
% 5
[V: S1V1] d | d d A/B/ c | d/c/ B !fermata!A d | c B A B | (G/F/ E) !fermata!D
w: Our help- er he, * a- mid * the flood of mor- tal ills pre- vail- * * ing:
w: Were not the right * Man on * our side, the Man of God's own choos- * * ing:
w: We will not fear, * for God * hath willed his truth to tri- umph through * * us:
w: The Spi- rit and * the gifts * are ours through him who with us si- * * deth:
[V: S1V2] F | D F E E | D E !ferm!C D | F D D D | (B, C) !ferm!D
[V: S2V1] A, | A, A, A,/^G,/ A, | F, ^G, !invertedfermata!A, F, | A, G, F, F, | (G, A,) !invertedfermata!F,
[V: S2V2] D, | F, D, C,/B,,/ A,, | B,, E, !ferm!A,, B,, | F, G, D, B,, | (E, A,,) !ferm!D,
% 9
[V: S1V1] D | F A B ^G | !fermata!A D A A | B c !fermata!d c | d c B B | !fermata!A
w: For still our an- cient foe doth seek to work us woe; His craft and pow'r are great, 
w: Dost ask who that may be? Christ Je- sus, it is he; Lord Sa- ba- oth, his name, 
w: The Prince of Dark- ness grim, we trem- ble not for him; His rage we can en- dure, 
w: Let goods and kin- dred go, this mor- tal life al- so; The bo- dy they may kill: 
[V: S1V2] D | D E F E | !ferm!E D E F | G G !ferm!F F | F E (F E/D/) | !ferm!C
[V: S2V1] F, | A,2 D B, | !invertedfermata!C F, A, D | D E !invertedfermata!A, A, | F, A, (A, ^G,) | !invertedfermata!A,
[V: S2V2] D, | D, C, B,, E, | !ferm!A,, B,, C, D, | G, E, !ferm!D, F, | B,, C, (D, E,) | !ferm!A,,
% 14
[V: S1V1] B B A | B G !fermata!F !sintro!d | c B A B | (G/F/ E) !fermata!D !eintro!|]
w: and, armed with cru- el hate, On earth is not his e- * * qual.
w: from age to age the same, And he must win the bat- * * tle.
w: for lo, his doom is sure, One lit- tle word shall fell * * him.
w: God's truth a- bi- deth still, His king- dom is for- ev- * * er.
[V: S1V2] G G F | F E !ferm!C F | F/E/ D D/=C/ B, | (B, =C) !ferm!D |]
[V: S2V1] D D3/2 =C/ | B, B, !invertedfermata!^A, B, | A, G, F, F, | (G, A,/G,/) !invertedfermata!F, |]
[V: S2V2] G,, B,, D, | ^D, E, !ferm!F, B,, | F, G, D, ^D, | (E, A,,) !ferm!D, |]

